X:14130
T:Reel des Habitants
C:Joseph Allard
M:2/4
L:1/16
K:Am
EAAB AGAB|cded cBc2|DGGA G^FGA|BcdB cBAG|!
A4 DAAB|AGAB cde^f|g^fge dBGB|cBAG A4:|!
|:eagb age^f|g^fga g^fed|eaab age^f|gedB cAA2|!
eaab age^f|g^fga gedB|g^fge dBGB|cBAG A4:|!
